X:1
T:Alta estava la peña
T:Anonymous
T:Source : Cancionero de Uppsala : Villancicos---Venetia---G.Scotto--1556. Editor : André Vierendeels (27/04/17). Notes : Original clefs : C3, C3, F3 Editorial accidentals above the staff Original note values have been halved 
T:Alta estava la peña
T:©
T:©
C:Anonymous
Z:©
%%score [ 1 2 3 ]
L:1/8
Q:1/4=120
M:3/2
K:C
V:1 treble-8 nm="Tenor 1" snm="T 1"
V:2 treble-8 nm="Tenor 2" snm="T 2"
V:3 bass nm="Bass" snm="B"
V:1
 z12 | z12 | c8 B4 | G4 A6 B2 | c8 B4 | c8 c4 | e4 e4 e4 | d8 c4 | B4 A8 | e4 e4 e4 | d8 c4 | %11
w: ||1. Al- ta'es-|ta- va la|pe- *|* nya|na- çe la|mal- va,|e- nel-|la, na- çe|la mal-|
w: ||2. Y el-|tre- vol flo-|ri- *|* do,|na- çe la|mal- va|e- nel-|* la, na-|la mal-|
 B4 d6 c2 | A4 B8 | A12 || c8 B4 | G4 A6 B2 | c8 B4 | c8 c4 | e4 e4 e4 | d8 c4 | e4 d6 c2 | A4 B8 | %22
w: va'e nel- *||la,|Al- ta'es-|ta- va la|pe- *|* nya,|ri- be- ras|del ri-|||
w: va'e nel- *||la,|A- na-|çe la mal-|va'e nel-|* la,|y'el- tre- vol|flo- ri-|||
 A12 |] %23
w: o.|
w: do.|
V:2
 z12 | c8 B4 | G4 A4 B4 | c8 d4 | e4 d8 | z4 c4 c4 | c4 B4 G4 | A4 B4 c2 A2- | A2 G2 A4 c4 | %9
w: |1. Al- ta'es-|ta- va la|pe- *|* nya,|na- çe|la mal- va'e-|nel- * * *|* * la, na-|
w: |3. Y'es- tre-|vol flo- ri-||* do,|na- çe|la mal- va'e|nel- * * *|* * la, na-|
 c2 c2 B4 G4 | A4 B4 c4 | d6 c2 A3 B |"^#""^#""^#" c2 A4 GF G4 | A12 || e8 e4 | e4 c4 f4 | e4 d8 | %17
w: çe la mal- va'e-|nel- * *|||la,|Al- ta'es-|ta- va la|pe- *|
w: çe la mal- va'e-|nel- * *|||la,|A- na-|çe la mal|va'e nel-|
 c12 | c6 B2 G2 A2 | B4 G4 A4 | E4 B6 G2 |"^#" A8 G4 | A12 |] %23
w: nya,|ri- be- ras del|ri- * *|||o.|
w: la,|y'el- tre- vol flo-|ri- * *|do, flo- *|ri- *|do.|
V:3
 F,8 E,4 | C,4 D,8 | E,4 F,4 G,4 | E,4 F,6 E,2 | C,4 G,8 | z4 A,4 A,4 | A,4 G,4 E,4 | F,4 G,4 A,4 | %8
w: 1. Al- ta'es-|ta- va|la pe- *||* nya,|na- çe|la mal- va'e|nel- * *|
w: 4. Y'es- tre-|vol flo-|ri- * *||* do,|na- çe|la mal- va'e|nel- * *|
 E,4 z4 A,4 | A,2 A,2 G,4 E,4 | F,4 G,4 A,4 | G,8 F,4- | F,4 E,8 | A,12 || C,6 D,2 E,4 | %15
w: la, na-|çe la mal- va'e-|nel- * *|||la,|Al- ta'es- ta-|
w: la, na-|çe la mal- va'e-|nel- * *|||la,|A- na- çe|
 E,4 F,4 D,4 | C,4 G,8 | C,8 z4 | C,6 D,2 E,2 F,2 | G,2 A,2 B,4 A,4 | G,6 F,2 D,4 | F,4 E,8 | %22
w: va la pe-||nya,|ri- be- ras del|ri- * * *|||
w: la mal- va'e|nel- *|la,|y'el- tre- vol flo-|ri- * * *|||
 A,12 |] %23
w: o.|
w: do.|

